;FLAVOR:Marlin
M117 Time Left 7h42m42s
;TIME:27762
;Filament used: 31.4515m
;Layer height: 0.28
;MINX:31.5
;MINY:74.6
;MINZ:0.28
;MAXX:203.5
;MAXY:160.4
;MAXZ:143.36
;POSTPROCESSED
;Generated with Cura_SteamEngine 4.10.0
M140 S75
M105
M190 S75
M104 S235
M105
M109 S235
M82 ;absolute extrusion mode
; Ender 3 Custom Start G-code
G92 E0 ; Reset Extruder
G28 ; Home all axes
; ***SET NEW E STEP *** (93 is factory value - 95 mine - start)
G90                          ; Force coordinates to be absolute relative to the origin
M92 E95 ;					 ; ***SET NEW E STEP *** (93 is factory value - 95 mine - end)
G90                          ; Force coordinates to be absolute relative to the origin
G28                          ; Home X/Y/Z axis
G92 E0 ; Reset Extruder
G28 ; Home all axes
G1 Z2.0 F3000 ; Move Z Axis up little to prevent scratching of Heat Bed
G1 X0.1 Y20 Z0.3 F5000.0 ; Move to start position
G1 X0.1 Y200.0 Z0.3 F1500.0 E15 ; Draw the first line
G1 X0.4 Y200.0 Z0.3 F5000.0 ; Move to side a little
G1 X0.4 Y20 Z0.3 F1500.0 E30 ; Draw the second line
G92 E0 ; Reset Extruder
G1 Z2.0 F3000 ; Move Z Axis up little to prevent scratching of Heat Bed
G1 X5 Y20 Z0.3 F5000.0 ; Move over to prevent blob squish
G92 E0
G92 E0
G1 F2700 E-6
;LAYER_COUNT:512
;LAYER:0
M107
M204 S500
M205 X8 Y8
G0 F7500 X65.122 Y76.234 Z0.28
;TYPE:SKIRT
G1 F2700 E0
G1 F1500 X65.77 Y75.783 E0.03492
G1 X66.461 Y75.399 E0.06989
G1 X67.186 Y75.087 E0.10481
G1 X67.939 Y74.85 E0.13973
G1 X68.713 Y74.691 E0.17468
G1 X69.498 Y74.61 E0.20959
G1 X69.9 Y74.6 E0.22738
G1 X163.9 Y74.6 E4.38556
G1 X164.689 Y74.64 E4.42051
G1 X165.469 Y74.759 E4.45541
G1 X166.234 Y74.957 E4.49037
G1 X166.974 Y75.231 E4.52528
G1 X167.683 Y75.579 E4.56021
G1 X168.354 Y75.997 E4.59518
G1 X168.978 Y76.48 E4.63009
G1 X169.551 Y77.023 E4.66501
G1 X170.066 Y77.622 E4.69995
G1 X170.517 Y78.27 E4.73488
G1 X170.901 Y78.961 E4.76985
G1 X171.213 Y79.686 E4.80476
G1 X171.45 Y80.439 E4.83968
G1 X171.609 Y81.213 E4.87464
G1 X171.69 Y81.998 E4.90955
G1 X171.7 Y82.4 E4.92734
G1 X171.7 Y124.8 E6.80294
G1 X195.7 Y124.8 E7.8646
G1 X196.489 Y124.84 E7.89955
G1 X197.269 Y124.959 E7.93446
G1 X198.034 Y125.157 E7.96941
G1 X198.774 Y125.431 E8.00432
G1 X199.483 Y125.779 E8.03926
G1 X200.154 Y126.197 E8.07423
G1 X200.778 Y126.68 E8.10913
G1 X201.351 Y127.223 E8.14405
G1 X201.866 Y127.822 E8.179
G1 X202.317 Y128.47 E8.21392
G1 X202.701 Y129.161 E8.24889
G1 X203.013 Y129.886 E8.28381
G1 X203.25 Y130.639 E8.31873
G1 X203.409 Y131.413 E8.35368
G1 X203.49 Y132.198 E8.38859
G1 X203.5 Y132.6 E8.40638
G1 X203.5 Y152.6 E9.2911
G1 X203.46 Y153.389 E9.32604
G1 X203.341 Y154.169 E9.36095
G1 X203.143 Y154.934 E9.3959
G1 X202.869 Y155.674 E9.43081
G1 X202.521 Y156.383 E9.46575
G1 X202.103 Y157.054 E9.50072
G1 X201.62 Y157.678 E9.53562
G1 X201.077 Y158.251 E9.57054
G1 X200.478 Y158.766 E9.60549
G1 X199.83 Y159.217 E9.64041
G1 X199.139 Y159.601 E9.67538
G1 X198.414 Y159.913 E9.7103
G1 X197.661 Y160.15 E9.74522
G1 X196.887 Y160.309 E9.78017
G1 X196.102 Y160.39 E9.81508
G1 X195.7 Y160.4 E9.83287
G1 X39.3 Y160.4 E16.75138
G1 X38.511 Y160.36 E16.78632
G1 X37.731 Y160.241 E16.82123
G1 X36.966 Y160.043 E16.85618
G1 X36.226 Y159.769 E16.89109
G1 X35.517 Y159.421 E16.92603
G1 X34.846 Y159.003 E16.961
G1 X34.222 Y158.52 E16.9959
G1 X33.649 Y157.977 E17.03083
G1 X33.134 Y157.378 E17.06577
G1 X32.683 Y156.73 E17.10069
G1 X32.299 Y156.039 E17.13566
G1 X31.987 Y155.314 E17.17058
G1 X31.75 Y154.561 E17.2055
G1 X31.591 Y153.787 E17.24045
G1 X31.51 Y153.002 E17.27536
G1 X31.5 Y152.6 E17.29315
G1 X31.5 Y132.6 E18.17787
G1 X31.54 Y131.811 E18.21282
G1 X31.659 Y131.031 E18.24772
G1 X31.857 Y130.266 E18.28268
G1 X32.131 Y129.526 E18.31758
G1 X32.479 Y128.817 E18.35252
G1 X32.897 Y128.146 E18.38749
G1 X33.38 Y127.522 E18.4224
G1 X33.923 Y126.949 E18.45732
G1 X34.522 Y126.434 E18.49226
G1 X35.17 Y125.983 E18.52719
G1 X35.861 Y125.599 E18.56216
G1 X36.586 Y125.287 E18.59707
G1 X37.339 Y125.05 E18.63199
G1 X38.113 Y124.891 E18.66694
G1 X38.898 Y124.81 E18.70185
G1 X39.3 Y124.8 E18.71964
G1 X62.1 Y124.8 E19.72822
G1 X62.1 Y82.4 E21.60383
G1 X62.14 Y81.611 E21.63878
G1 X62.259 Y80.831 E21.67368
G1 X62.457 Y80.066 E21.70863
G1 X62.731 Y79.326 E21.74354
G1 X63.079 Y78.617 E21.77848
G1 X63.497 Y77.946 E21.81345
G1 X63.98 Y77.322 E21.84836
G1 X64.523 Y76.749 E21.88328
G1 X65.122 Y76.234 E21.91822
G0 F7500 X65.511 Y76.442
G1 F1500 X66.153 Y76.019 E21.95223
G1 X66.836 Y75.664 E21.98628
G1 X67.551 Y75.383 E22.02026
G1 X68.293 Y75.177 E22.05433
G1 X69.051 Y75.049 E22.08833
G1 X69.9 Y75 E22.12595
G1 X163.9 Y75 E26.28414
G1 X164.668 Y75.04 E26.31815
G1 X165.428 Y75.159 E26.35218
G1 X166.171 Y75.357 E26.3862
G1 X166.89 Y75.631 E26.42024
G1 X167.576 Y75.978 E26.45424
G1 X168.223 Y76.394 E26.48827
G1 X168.823 Y76.875 E26.52229
G1 X169.37 Y77.416 E26.55632
G1 X169.858 Y78.011 E26.59036
G1 X170.281 Y78.653 E26.62437
G1 X170.636 Y79.336 E26.65842
G1 X170.917 Y80.051 E26.6924
G1 X171.123 Y80.793 E26.72647
G1 X171.251 Y81.551 E26.76047
G1 X171.3 Y82.4 E26.79809
G1 X171.3 Y125.2 E28.69139
G1 X195.7 Y125.2 E29.77075
G1 X196.468 Y125.24 E29.80477
G1 X197.228 Y125.359 E29.8388
G1 X197.971 Y125.557 E29.87281
G1 X198.69 Y125.831 E29.90685
G1 X199.376 Y126.178 E29.94086
G1 X200.023 Y126.594 E29.97488
G1 X200.623 Y127.075 E30.0089
G1 X201.17 Y127.616 E30.04293
G1 X201.658 Y128.211 E30.07697
G1 X202.081 Y128.853 E30.11098
G1 X202.436 Y129.536 E30.14503
G1 X202.717 Y130.251 E30.17902
G1 X202.923 Y130.993 E30.21308
G1 X203.051 Y131.751 E30.24709
G1 X203.1 Y132.6 E30.28471
G1 X203.1 Y152.6 E31.16943
G1 X203.06 Y153.368 E31.20345
G1 X202.941 Y154.128 E31.23748
G1 X202.743 Y154.871 E31.27149
G1 X202.469 Y155.59 E31.30553
G1 X202.122 Y156.276 E31.33953
G1 X201.706 Y156.923 E31.37356
G1 X201.225 Y157.523 E31.40758
G1 X200.684 Y158.07 E31.44161
G1 X200.089 Y158.558 E31.47565
G1 X199.447 Y158.981 E31.50966
G1 X198.764 Y159.336 E31.54371
G1 X198.049 Y159.617 E31.57769
G1 X197.307 Y159.823 E31.61176
G1 X196.549 Y159.951 E31.64576
G1 X195.7 Y160 E31.68338
G1 X39.3 Y160 E38.60189
G1 X38.532 Y159.96 E38.63591
G1 X37.772 Y159.841 E38.66994
G1 X37.029 Y159.643 E38.70395
G1 X36.31 Y159.369 E38.73799
G1 X35.624 Y159.022 E38.772
G1 X34.977 Y158.606 E38.80602
G1 X34.377 Y158.125 E38.84004
G1 X33.83 Y157.584 E38.87407
G1 X33.342 Y156.989 E38.90811
G1 X32.919 Y156.347 E38.94212
G1 X32.564 Y155.664 E38.97617
G1 X32.283 Y154.949 E39.01016
G1 X32.077 Y154.207 E39.04422
G1 X31.949 Y153.449 E39.07823
G1 X31.9 Y152.6 E39.11585
G1 X31.9 Y132.6 E40.00057
G1 X31.94 Y131.832 E40.03459
G1 X32.059 Y131.072 E40.06862
G1 X32.257 Y130.329 E40.10263
G1 X32.531 Y129.61 E40.13667
G1 X32.878 Y128.924 E40.17067
G1 X33.294 Y128.277 E40.2047
G1 X33.775 Y127.677 E40.23872
G1 X34.316 Y127.13 E40.27275
G1 X34.911 Y126.642 E40.30679
G1 X35.553 Y126.219 E40.3408
G1 X36.236 Y125.864 E40.37485
G1 X36.951 Y125.583 E40.40884
G1 X37.693 Y125.377 E40.4429
G1 X38.451 Y125.249 E40.47691
G1 X39.3 Y125.2 E40.51452
G1 X62.5 Y125.2 E41.5408
G1 X62.5 Y82.4 E43.4341
G1 X62.54 Y81.632 E43.46812
G1 X62.659 Y80.872 E43.50215
G1 X62.857 Y80.129 E43.53616
G1 X63.131 Y79.41 E43.5702
G1 X63.478 Y78.724 E43.60421
G1 X63.894 Y78.077 E43.63823
G1 X64.375 Y77.477 E43.67225
G1 X64.916 Y76.93 E43.70628
G1 X65.511 Y76.442 E43.74032
G0 F7500 X65.898 Y76.657
G1 F1500 X66.534 Y76.262 E43.77344
G1 X67.208 Y75.938 E43.80652
G1 X67.913 Y75.688 E43.83961
G1 X68.641 Y75.514 E43.87272
G1 X69.383 Y75.419 E43.90581
G1 X69.9 Y75.4 E43.9287
G1 X163.9 Y75.4 E48.08688
G1 X164.647 Y75.44 E48.11997
G1 X165.385 Y75.559 E48.15304
G1 X166.107 Y75.757 E48.18616
G1 X166.803 Y76.03 E48.21923
G1 X167.466 Y76.377 E48.25233
G1 X168.089 Y76.792 E48.28545
G1 X168.663 Y77.271 E48.31852
G1 X169.184 Y77.808 E48.35161
G1 X169.643 Y78.398 E48.38468
G1 X170.038 Y79.034 E48.4178
G1 X170.362 Y79.708 E48.45088
G1 X170.612 Y80.413 E48.48397
G1 X170.786 Y81.141 E48.51708
G1 X170.881 Y81.883 E48.55017
G1 X170.9 Y82.4 E48.57306
G1 X170.9 Y125.6 E50.48405
G1 X195.7 Y125.6 E51.5811
G1 X196.447 Y125.64 E51.6142
G1 X197.185 Y125.759 E51.64726
G1 X197.907 Y125.957 E51.68038
G1 X198.603 Y126.23 E51.71345
G1 X199.266 Y126.577 E51.74656
G1 X199.889 Y126.992 E51.77967
G1 X200.463 Y127.471 E51.81274
G1 X200.984 Y128.008 E51.84584
G1 X201.443 Y128.598 E51.87891
G1 X201.838 Y129.234 E51.91202
G1 X202.162 Y129.908 E51.94511
G1 X202.412 Y130.613 E51.97819
G1 X202.586 Y131.341 E52.01131
G1 X202.681 Y132.083 E52.0444
G1 X202.7 Y132.6 E52.06728
G1 X202.7 Y152.6 E52.952
G1 X202.66 Y153.347 E52.98509
G1 X202.541 Y154.085 E53.01816
G1 X202.343 Y154.807 E53.05128
G1 X202.07 Y155.503 E53.08435
G1 X201.723 Y156.166 E53.11745
G1 X201.308 Y156.789 E53.15057
G1 X200.829 Y157.363 E53.18364
G1 X200.292 Y157.884 E53.21674
G1 X199.702 Y158.343 E53.2498
G1 X199.066 Y158.738 E53.28292
G1 X198.392 Y159.062 E53.316
G1 X197.687 Y159.312 E53.34909
G1 X196.959 Y159.486 E53.3822
G1 X196.217 Y159.581 E53.41529
G1 X195.7 Y159.6 E53.43818
G1 X39.3 Y159.6 E60.35669
G1 X38.553 Y159.56 E60.38978
G1 X37.815 Y159.441 E60.42284
G1 X37.093 Y159.243 E60.45596
G1 X36.397 Y158.97 E60.48903
G1 X35.734 Y158.623 E60.52214
G1 X35.111 Y158.208 E60.55525
G1 X34.537 Y157.729 E60.58832
G1 X34.016 Y157.192 E60.62142
G1 X33.557 Y156.602 E60.65449
G1 X33.162 Y155.966 E60.68761
G1 X32.838 Y155.292 E60.72069
G1 X32.588 Y154.587 E60.75378
G1 X32.414 Y153.859 E60.78689
G1 X32.319 Y153.117 E60.81998
G1 X32.3 Y152.6 E60.84286
G1 X32.3 Y132.6 E61.72758
G1 X32.34 Y131.853 E61.76067
G1 X32.459 Y131.115 E61.79374
G1 X32.657 Y130.393 E61.82686
G1 X32.93 Y129.697 E61.85993
G1 X33.277 Y129.034 E61.89303
G1 X33.692 Y128.411 E61.92615
G1 X34.171 Y127.837 E61.95922
G1 X34.708 Y127.316 E61.99232
G1 X35.298 Y126.857 E62.02538
G1 X35.934 Y126.462 E62.0585
G1 X36.608 Y126.138 E62.09158
G1 X37.313 Y125.888 E62.12467
G1 X38.041 Y125.714 E62.15778
G1 X38.783 Y125.619 E62.19087
G1 X39.3 Y125.6 E62.21376
G1 X62.9 Y125.6 E63.25773
G1 X62.9 Y82.4 E65.16872
G1 X62.94 Y81.653 E65.20181
G1 X63.059 Y80.915 E65.23488
G1 X63.257 Y80.193 E65.268
G1 X63.53 Y79.497 E65.30107
G1 X63.877 Y78.834 E65.33417
G1 X64.292 Y78.211 E65.36729
G1 X64.771 Y77.637 E65.40036
G1 X65.308 Y77.116 E65.43346
G1 X65.898 Y76.657 E65.46652
G0 F7500 X65.699 Y77.309
G1 F1500 X66.284 Y76.879 E65.49864
G1 X66.913 Y76.515 E65.53079
G1 X67.578 Y76.222 E65.56293
G1 X68.271 Y76.004 E65.59507
G1 X68.983 Y75.864 E65.62717
G1 X69.9 Y75.8 E65.66783
G1 X163.9 Y75.8 E69.82601
G1 X164.625 Y75.84 E69.85813
G1 X165.342 Y75.959 E69.89029
G1 X166.041 Y76.157 E69.92242
G1 X166.714 Y76.43 E69.95455
G1 X167.353 Y76.775 E69.98667
G1 X167.95 Y77.189 E70.01881
G1 X168.498 Y77.665 E70.05092
G1 X168.991 Y78.199 E70.08307
G1 X169.421 Y78.784 E70.11519
G1 X169.785 Y79.413 E70.14733
G1 X170.078 Y80.078 E70.17948
G1 X170.296 Y80.771 E70.21162
G1 X170.436 Y81.483 E70.24372
G1 X170.5 Y82.4 E70.28438
G1 X170.5 Y126 E72.21307
G1 X195.7 Y126 E73.32781
G1 X196.425 Y126.04 E73.35993
G1 X197.142 Y126.159 E73.39209
G1 X197.841 Y126.357 E73.42422
G1 X198.514 Y126.63 E73.45635
G1 X199.153 Y126.975 E73.48847
G1 X199.75 Y127.389 E73.52061
G1 X200.298 Y127.865 E73.55272
G1 X200.791 Y128.399 E73.58487
G1 X201.221 Y128.984 E73.61699
G1 X201.585 Y129.613 E73.64913
G1 X201.878 Y130.278 E73.68128
G1 X202.096 Y130.971 E73.71342
G1 X202.236 Y131.683 E73.74552
G1 X202.3 Y132.6 E73.78618
G1 X202.3 Y152.6 E74.6709
G1 X202.26 Y153.325 E74.70302
G1 X202.141 Y154.042 E74.73517
G1 X201.943 Y154.741 E74.76731
G1 X201.67 Y155.414 E74.79943
G1 X201.325 Y156.053 E74.83156
G1 X200.911 Y156.65 E74.8637
G1 X200.435 Y157.198 E74.8958
G1 X199.901 Y157.691 E74.92795
G1 X199.316 Y158.121 E74.96007
G1 X198.687 Y158.485 E74.99222
G1 X198.022 Y158.778 E75.02436
G1 X197.329 Y158.996 E75.0565
G1 X196.617 Y159.136 E75.0886
G1 X195.7 Y159.2 E75.12926
G1 X39.3 Y159.2 E82.04777
G1 X38.575 Y159.16 E82.07989
G1 X37.858 Y159.041 E82.11204
G1 X37.159 Y158.843 E82.14418
G1 X36.486 Y158.57 E82.17631
G1 X35.847 Y158.225 E82.20843
G1 X35.25 Y157.811 E82.24057
G1 X34.702 Y157.335 E82.27268
G1 X34.209 Y156.801 E82.30483
G1 X33.779 Y156.216 E82.33694
G1 X33.415 Y155.587 E82.36909
G1 X33.122 Y154.922 E82.40124
G1 X32.904 Y154.229 E82.43337
G1 X32.764 Y153.517 E82.46547
G1 X32.7 Y152.6 E82.50613
G1 X32.7 Y132.6 E83.39085
G1 X32.74 Y131.875 E83.42297
G1 X32.859 Y131.158 E83.45513
G1 X33.057 Y130.459 E83.48726
G1 X33.33 Y129.786 E83.51939
G1 X33.675 Y129.147 E83.55151
G1 X34.089 Y128.55 E83.58365
G1 X34.565 Y128.002 E83.61576
G1 X35.099 Y127.509 E83.64791
G1 X35.684 Y127.079 E83.68003
G1 X36.313 Y126.715 E83.71217
G1 X36.978 Y126.422 E83.74432
G1 X37.671 Y126.204 E83.77646
G1 X38.383 Y126.064 E83.80856
G1 X39.3 Y126 E83.84922
G1 X63.3 Y126 E84.91088
G1 X63.3 Y82.4 E86.83957
G1 X63.34 Y81.675 E86.87169
G1 X63.459 Y80.958 E86.90384
G1 X63.657 Y80.259 E86.93598
G1 X63.93 Y79.586 E86.96811
G1 X64.275 Y78.947 E87.00023
G1 X64.689 Y78.35 E87.03237
G1 X65.165 Y77.802 E87.06448
G1 X65.699 Y77.309 E87.09663
G0 F7500 X66.089 Y77.509
G1 F1500 X66.668 Y77.109 E87.12776
G1 X67.289 Y76.777 E87.15891
G1 X67.943 Y76.517 E87.19004
G1 X68.623 Y76.333 E87.2212
G1 X69.319 Y76.227 E87.25234
G1 X69.9 Y76.2 E87.27807
G1 X163.9 Y76.2 E91.43626
G1 X164.603 Y76.24 E91.4674
G1 X165.297 Y76.359 E91.49855
G1 X165.972 Y76.557 E91.52967
G1 X166.621 Y76.829 E91.5608
G1 X167.235 Y77.174 E91.59195
G1 X167.806 Y77.585 E91.62307
G1 X168.327 Y78.059 E91.65423
G1 X168.791 Y78.589 E91.68539
G1 X169.191 Y79.168 E91.71652
G1 X169.523 Y79.789 E91.74767
G1 X169.783 Y80.443 E91.77881
G1 X169.967 Y81.123 E91.80997
G1 X170.073 Y81.819 E91.84111
G1 X170.1 Y82.4 E91.86684
G1 X170.1 Y126.4 E93.81322
G1 X195.7 Y126.4 E94.94566
G1 X196.403 Y126.44 E94.97681
G1 X197.097 Y126.559 E95.00796
G1 X197.772 Y126.757 E95.03908
G1 X198.421 Y127.029 E95.07021
G1 X199.035 Y127.374 E95.10136
G1 X199.606 Y127.785 E95.13248
G1 X200.127 Y128.259 E95.16364
G1 X200.591 Y128.789 E95.1948
G1 X200.991 Y129.368 E95.22593
G1 X201.323 Y129.989 E95.25708
G1 X201.583 Y130.643 E95.28821
G1 X201.767 Y131.323 E95.31938
G1 X201.873 Y132.019 E95.35052
G1 X201.9 Y132.6 E95.37625
G1 X201.9 Y152.6 E96.26097
G1 X201.86 Y153.303 E96.29212
G1 X201.741 Y153.997 E96.32326
G1 X201.543 Y154.672 E96.35438
G1 X201.271 Y155.321 E96.38551
G1 X200.926 Y155.935 E96.41666
G1 X200.515 Y156.506 E96.44779
G1 X200.041 Y157.027 E96.47894
G1 X199.511 Y157.491 E96.5101
G1 X198.932 Y157.891 E96.54123
G1 X198.311 Y158.223 E96.57238
G1 X197.657 Y158.483 E96.60352
G1 X196.977 Y158.667 E96.63468
G1 X196.281 Y158.773 E96.66582
G1 X195.7 Y158.8 E96.69155
G1 X39.3 Y158.8 E103.61006
G1 X38.597 Y158.76 E103.64121
G1 X37.903 Y158.641 E103.67235
G1 X37.228 Y158.443 E103.70347
G1 X36.579 Y158.171 E103.7346
G1 X35.965 Y157.826 E103.76576
G1 X35.394 Y157.415 E103.79688
G1 X34.873 Y156.941 E103.82803
G1 X34.409 Y156.411 E103.8592
G1 X34.009 Y155.832 E103.89033
G1 X33.677 Y155.211 E103.92148
G1 X33.417 Y154.557 E103.95261
G1 X33.233 Y153.877 E103.98377
G1 X33.127 Y153.181 E104.01491
G1 X33.1 Y152.6 E104.04064
G1 X33.1 Y132.6 E104.92536
G1 X33.14 Y131.897 E104.95651
G1 X33.259 Y131.203 E104.98766
G1 X33.457 Y130.528 E105.01878
G1 X33.729 Y129.879 E105.0499
G1 X34.074 Y129.265 E105.08106
G1 X34.485 Y128.694 E105.11218
G1 X34.959 Y128.173 E105.14334
G1 X35.489 Y127.709 E105.1745
G1 X36.068 Y127.309 E105.20563
G1 X36.689 Y126.977 E105.23678
G1 X37.343 Y126.717 E105.26791
G1 X38.023 Y126.533 E105.29907
G1 X38.719 Y126.427 E105.33022
G1 X39.3 Y126.4 E105.35595
G1 X63.7 Y126.4 E106.4353
G1 X63.7 Y82.4 E108.38169
G1 X63.74 Y81.697 E108.41284
G1 X63.859 Y81.003 E108.44398
G1 X64.057 Y80.328 E108.4751
G1 X64.329 Y79.679 E108.50623
G1 X64.674 Y79.065 E108.53738
G1 X65.085 Y78.494 E108.56851
G1 X65.559 Y77.973 E108.59966
G1 X66.089 Y77.509 E108.63082
G0 F7500 X66.478 Y77.717
G1 F1500 X67.05 Y77.348 E108.66093
G1 X67.662 Y77.049 E108.69107
G1 X68.304 Y76.824 E108.72116
G1 X68.969 Y76.675 E108.75131
G1 X69.9 Y76.6 E108.79262
G1 X163.9 Y76.6 E112.9508
G1 X164.58 Y76.64 E112.98094
G1 X165.25 Y76.759 E113.01104
G1 X165.902 Y76.956 E113.04117
G1 X166.526 Y77.228 E113.07128
G1 X167.114 Y77.572 E113.10142
