;FLAVOR:Marlin
M117 Time Left 0h48m01s
;TIME:2881
;Filament used: 2.46292m
;Layer height: 0.28
;MINX:64.2
;MINY:76.2
;MINZ:0.28
;MAXX:170.8
;MAXY:158.8
;MAXZ:1.12
;POSTPROCESSED
;Generated with Cura_SteamEngine 4.10.0
M140 S60
M105
M190 S60
M104 S205
M105
M109 S205
M82 ;absolute extrusion mode
; Ender 3 Custom Start G-code
G92 E0 ; Reset Extruder
G28 ; Home all axes
; ***SET NEW E STEP *** (93 is factory value - 95 mine - start)
G90                          ; Force coordinates to be absolute relative to the origin
M92 E95 ;					 ; ***SET NEW E STEP *** (93 is factory value - 95 mine - end)
G90                          ; Force coordinates to be absolute relative to the origin
G28                          ; Home X/Y/Z axis
G92 E0 ; Reset Extruder
G28 ; Home all axes
G1 Z2.0 F3000 ; Move Z Axis up little to prevent scratching of Heat Bed
G1 X0.1 Y20 Z0.3 F5000.0 ; Move to start position
G1 X0.1 Y200.0 Z0.3 F1500.0 E15 ; Draw the first line
G1 X0.4 Y200.0 Z0.3 F5000.0 ; Move to side a little
G1 X0.4 Y20 Z0.3 F1500.0 E30 ; Draw the second line
G92 E0 ; Reset Extruder
G1 Z2.0 F3000 ; Move Z Axis up little to prevent scratching of Heat Bed
G1 X5 Y20 Z0.3 F5000.0 ; Move over to prevent blob squish
G92 E0
G92 E0
G1 F2700 E-6
;LAYER_COUNT:4
;LAYER:0
M107
M204 S500
M205 X8 Y8
G0 F7500 X67.222 Y77.834 Z0.28
;TYPE:SKIRT
G1 F2700 E0
G1 F1500 X67.87 Y77.383 E0.03492
G1 X68.561 Y76.999 E0.06989
G1 X69.286 Y76.687 E0.10481
G1 X70.039 Y76.45 E0.13973
G1 X70.813 Y76.291 E0.17468
G1 X71.598 Y76.21 E0.20959
G1 X72 Y76.2 E0.22738
G1 X163 Y76.2 E4.25286
G1 X163.789 Y76.24 E4.2878
G1 X164.569 Y76.359 E4.32271
G1 X165.334 Y76.557 E4.35766
G1 X166.074 Y76.831 E4.39257
G1 X166.783 Y77.179 E4.42751
G1 X167.454 Y77.597 E4.46248
G1 X168.078 Y78.08 E4.49738
G1 X168.651 Y78.623 E4.5323
G1 X169.166 Y79.222 E4.56725
G1 X169.617 Y79.87 E4.60217
G1 X170.001 Y80.561 E4.63714
G1 X170.313 Y81.286 E4.67206
G1 X170.55 Y82.039 E4.70698
G1 X170.709 Y82.813 E4.74193
G1 X170.79 Y83.598 E4.77684
G1 X170.8 Y84 E4.79463
G1 X170.8 Y151 E7.75844
G1 X170.76 Y151.789 E7.79339
G1 X170.641 Y152.569 E7.82829
G1 X170.443 Y153.334 E7.86324
G1 X170.169 Y154.074 E7.89815
G1 X169.821 Y154.783 E7.93309
G1 X169.403 Y155.454 E7.96806
G1 X168.92 Y156.078 E8.00297
G1 X168.377 Y156.651 E8.03789
G1 X167.778 Y157.166 E8.07283
G1 X167.13 Y157.617 E8.10775
G1 X166.439 Y158.001 E8.14272
G1 X165.714 Y158.313 E8.17764
G1 X164.961 Y158.55 E8.21256
G1 X164.187 Y158.709 E8.24751
G1 X163.402 Y158.79 E8.28242
G1 X163 Y158.8 E8.30021
G1 X72 Y158.8 E12.32569
G1 X71.211 Y158.76 E12.36063
G1 X70.431 Y158.641 E12.39554
G1 X69.666 Y158.443 E12.43049
G1 X68.926 Y158.169 E12.4654
G1 X68.217 Y157.821 E12.50034
G1 X67.546 Y157.403 E12.53531
G1 X66.922 Y156.92 E12.57021
G1 X66.349 Y156.377 E12.60513
G1 X65.834 Y155.778 E12.64008
G1 X65.383 Y155.13 E12.675
G1 X64.999 Y154.439 E12.70997
G1 X64.687 Y153.714 E12.74489
G1 X64.45 Y152.961 E12.77981
G1 X64.291 Y152.187 E12.81476
G1 X64.21 Y151.402 E12.84967
G1 X64.2 Y151 E12.86746
G1 X64.2 Y84 E15.83127
G1 X64.24 Y83.211 E15.86622
G1 X64.359 Y82.431 E15.90112
G1 X64.557 Y81.666 E15.93608
G1 X64.831 Y80.926 E15.97098
G1 X65.179 Y80.217 E16.00592
G1 X65.597 Y79.546 E16.04089
G1 X66.08 Y78.922 E16.0758
G1 X66.623 Y78.349 E16.11072
G1 X67.222 Y77.834 E16.14566
G0 F7500 X67.611 Y78.042
G1 F1500 X68.253 Y77.619 E16.17967
G1 X68.936 Y77.264 E16.21372
G1 X69.651 Y76.983 E16.24771
G1 X70.393 Y76.777 E16.28177
G1 X71.151 Y76.649 E16.31578
G1 X72 Y76.6 E16.35339
G1 X163 Y76.6 E20.37887
G1 X163.768 Y76.64 E20.41289
G1 X164.528 Y76.759 E20.44692
G1 X165.271 Y76.957 E20.48093
G1 X165.99 Y77.231 E20.51497
G1 X166.676 Y77.578 E20.54897
G1 X167.323 Y77.994 E20.583
G1 X167.923 Y78.475 E20.61702
G1 X168.47 Y79.016 E20.65105
G1 X168.958 Y79.611 E20.68509
G1 X169.381 Y80.253 E20.7191
G1 X169.736 Y80.936 E20.75315
G1 X170.017 Y81.651 E20.78714
G1 X170.223 Y82.393 E20.8212
G1 X170.351 Y83.151 E20.85521
G1 X170.4 Y84 E20.89283
G1 X170.4 Y151 E23.85664
G1 X170.36 Y151.768 E23.89065
G1 X170.241 Y152.528 E23.92468
G1 X170.043 Y153.271 E23.9587
G1 X169.769 Y153.99 E23.99274
G1 X169.422 Y154.676 E24.02674
G1 X169.006 Y155.323 E24.06077
G1 X168.525 Y155.923 E24.09479
G1 X167.984 Y156.47 E24.12882
G1 X167.389 Y156.958 E24.16286
G1 X166.747 Y157.381 E24.19687
G1 X166.064 Y157.736 E24.23092
G1 X165.349 Y158.017 E24.2649
G1 X164.607 Y158.223 E24.29897
G1 X163.849 Y158.351 E24.33297
G1 X163 Y158.4 E24.37059
G1 X72 Y158.4 E28.39607
G1 X71.232 Y158.36 E28.43009
G1 X70.472 Y158.241 E28.46411
G1 X69.729 Y158.043 E28.49813
G1 X69.01 Y157.769 E28.53217
G1 X68.324 Y157.422 E28.56617
G1 X67.677 Y157.006 E28.6002
G1 X67.077 Y156.525 E28.63422
G1 X66.53 Y155.984 E28.66825
G1 X66.042 Y155.389 E28.70229
G1 X65.619 Y154.747 E28.7363
G1 X65.264 Y154.064 E28.77035
G1 X64.983 Y153.349 E28.80433
G1 X64.777 Y152.607 E28.8384
G1 X64.649 Y151.849 E28.8724
G1 X64.6 Y151 E28.91002
G1 X64.6 Y84 E31.87383
G1 X64.64 Y83.232 E31.90785
G1 X64.759 Y82.472 E31.94188
G1 X64.957 Y81.729 E31.9759
G1 X65.231 Y81.01 E32.00993
G1 X65.578 Y80.324 E32.04394
G1 X65.994 Y79.677 E32.07797
G1 X66.475 Y79.077 E32.11198
G1 X67.016 Y78.53 E32.14602
G1 X67.611 Y78.042 E32.18006
G0 F7500 X67.998 Y78.257
G1 F1500 X68.634 Y77.862 E32.21318
G1 X69.308 Y77.538 E32.24626
G1 X70.013 Y77.288 E32.27935
G1 X70.741 Y77.114 E32.31246
G1 X71.483 Y77.019 E32.34555
G1 X72 Y77 E32.36843
G1 X163 Y77 E36.39391
G1 X163.747 Y77.04 E36.427
G1 X164.485 Y77.159 E36.46007
G1 X165.207 Y77.357 E36.49319
G1 X165.903 Y77.63 E36.52626
G1 X166.566 Y77.977 E36.55936
G1 X167.189 Y78.392 E36.59247
G1 X167.763 Y78.871 E36.62554
G1 X168.284 Y79.408 E36.65864
G1 X168.743 Y79.998 E36.69171
G1 X169.138 Y80.634 E36.72483
G1 X169.462 Y81.308 E36.75791
G1 X169.712 Y82.013 E36.791
G1 X169.886 Y82.741 E36.82411
G1 X169.981 Y83.483 E36.8572
G1 X170 Y84 E36.88009
G1 X170 Y151 E39.8439
G1 X169.96 Y151.747 E39.87699
G1 X169.841 Y152.485 E39.91006
G1 X169.643 Y153.207 E39.94317
G1 X169.37 Y153.903 E39.97624
G1 X169.023 Y154.566 E40.00935
G1 X168.608 Y155.189 E40.04246
G1 X168.129 Y155.763 E40.07553
G1 X167.592 Y156.284 E40.10863
G1 X167.002 Y156.743 E40.1417
G1 X166.366 Y157.138 E40.17482
G1 X165.692 Y157.462 E40.2079
G1 X164.987 Y157.712 E40.24099
G1 X164.259 Y157.886 E40.2741
G1 X163.517 Y157.981 E40.30719
G1 X163 Y158 E40.33007
G1 X72 Y158 E44.35555
G1 X71.253 Y157.96 E44.38864
G1 X70.515 Y157.841 E44.42171
G1 X69.793 Y157.643 E44.45482
G1 X69.097 Y157.37 E44.4879
G1 X68.434 Y157.023 E44.521
G1 X67.811 Y156.608 E44.55411
G1 X67.237 Y156.129 E44.58718
G1 X66.716 Y155.592 E44.62028
G1 X66.257 Y155.002 E44.65335
G1 X65.862 Y154.366 E44.68647
G1 X65.538 Y153.692 E44.71955
G1 X65.288 Y152.987 E44.75264
G1 X65.114 Y152.259 E44.78575
G1 X65.019 Y151.517 E44.81884
G1 X65 Y151 E44.84172
G1 X65 Y84 E47.80553
G1 X65.04 Y83.253 E47.83863
G1 X65.159 Y82.515 E47.87169
G1 X65.357 Y81.793 E47.90481
G1 X65.63 Y81.097 E47.93788
G1 X65.977 Y80.434 E47.97099
G1 X66.392 Y79.811 E48.0041
G1 X66.871 Y79.237 E48.03717
G1 X67.408 Y78.716 E48.07027
G1 X67.998 Y78.257 E48.10334
G0 F7500 X67.799 Y78.909
G1 F1500 X68.384 Y78.479 E48.13545
G1 X69.013 Y78.115 E48.1676
G1 X69.678 Y77.822 E48.19975
G1 X70.371 Y77.604 E48.23188
G1 X71.083 Y77.464 E48.26398
G1 X72 Y77.4 E48.30464
G1 X163 Y77.4 E52.33012
G1 X163.725 Y77.44 E52.36224
G1 X164.442 Y77.559 E52.39439
G1 X165.141 Y77.757 E52.42653
G1 X165.814 Y78.03 E52.45865
G1 X166.453 Y78.375 E52.49078
G1 X167.05 Y78.789 E52.52292
G1 X167.598 Y79.265 E52.55502
G1 X168.091 Y79.799 E52.58717
G1 X168.521 Y80.384 E52.61929
G1 X168.885 Y81.013 E52.65144
G1 X169.178 Y81.678 E52.68358
G1 X169.396 Y82.371 E52.71572
G1 X169.536 Y83.083 E52.74782
G1 X169.6 Y84 E52.78848
G1 X169.6 Y151 E55.75229
G1 X169.56 Y151.725 E55.78441
G1 X169.441 Y152.442 E55.81656
G1 X169.243 Y153.141 E55.8487
G1 X168.97 Y153.814 E55.88083
G1 X168.625 Y154.453 E55.91295
G1 X168.211 Y155.05 E55.94509
G1 X167.735 Y155.598 E55.9772
G1 X167.201 Y156.091 E56.00935
G1 X166.616 Y156.521 E56.04147
G1 X165.987 Y156.885 E56.07361
G1 X165.322 Y157.178 E56.10576
G1 X164.629 Y157.396 E56.1379
G1 X163.917 Y157.536 E56.17
G1 X163 Y157.6 E56.21066
G1 X72 Y157.6 E60.23613
G1 X71.275 Y157.56 E60.26825
G1 X70.558 Y157.441 E60.3004
G1 X69.859 Y157.243 E60.33254
G1 X69.186 Y156.97 E60.36467
G1 X68.547 Y156.625 E60.39679
G1 X67.95 Y156.211 E60.42893
G1 X67.402 Y155.735 E60.46104
G1 X66.909 Y155.201 E60.49319
G1 X66.479 Y154.616 E60.5253
G1 X66.115 Y153.987 E60.55745
G1 X65.822 Y153.322 E60.5896
G1 X65.604 Y152.629 E60.62173
G1 X65.464 Y151.917 E60.65383
G1 X65.4 Y151 E60.6945
G1 X65.4 Y84 E63.65831
G1 X65.44 Y83.275 E63.69043
G1 X65.559 Y82.558 E63.72258
G1 X65.757 Y81.859 E63.75472
G1 X66.03 Y81.186 E63.78684
G1 X66.375 Y80.547 E63.81897
G1 X66.789 Y79.95 E63.8511
G1 X67.265 Y79.402 E63.88321
G1 X67.799 Y78.909 E63.91536
G0 F7500 X68.189 Y79.109
G1 F1500 X68.768 Y78.709 E63.94649
G1 X69.389 Y78.377 E63.97764
G1 X70.043 Y78.117 E64.00878
G1 X70.723 Y77.933 E64.03994
G1 X71.419 Y77.827 E64.07108
G1 X72 Y77.8 E64.09681
G1 X163 Y77.8 E68.12228
G1 X163.703 Y77.84 E68.15343
G1 X164.397 Y77.959 E68.18458
G1 X165.072 Y78.157 E68.2157
G1 X165.721 Y78.429 E68.24683
G1 X166.335 Y78.774 E68.27798
G1 X166.906 Y79.185 E68.3091
G1 X167.427 Y79.659 E68.34026
G1 X167.891 Y80.189 E68.37142
G1 X168.291 Y80.768 E68.40255
G1 X168.623 Y81.389 E68.4337
G1 X168.883 Y82.043 E68.46483
G1 X169.067 Y82.723 E68.496
G1 X169.173 Y83.419 E68.52714
G1 X169.2 Y84 E68.55287
G1 X169.2 Y151 E71.51668
G1 X169.16 Y151.703 E71.54783
G1 X169.041 Y152.397 E71.57898
G1 X168.843 Y153.072 E71.61009
G1 X168.571 Y153.721 E71.64122
G1 X168.226 Y154.335 E71.67238
G1 X167.815 Y154.906 E71.7035
G1 X167.341 Y155.427 E71.73466
G1 X166.811 Y155.891 E71.76582
G1 X166.232 Y156.291 E71.79695
G1 X165.611 Y156.623 E71.8281
G1 X164.957 Y156.883 E71.85923
G1 X164.277 Y157.067 E71.89039
G1 X163.581 Y157.173 E71.92153
G1 X163 Y157.2 E71.94726
G1 X72 Y157.2 E75.97274
G1 X71.297 Y157.16 E76.00389
G1 X70.603 Y157.041 E76.03503
G1 X69.928 Y156.843 E76.06615
G1 X69.279 Y156.571 E76.09728
G1 X68.665 Y156.226 E76.12843
G1 X68.094 Y155.815 E76.15956
G1 X67.573 Y155.341 E76.19071
G1 X67.109 Y154.811 E76.22187
G1 X66.709 Y154.232 E76.253
G1 X66.377 Y153.611 E76.28415
G1 X66.117 Y152.957 E76.31529
G1 X65.933 Y152.277 E76.34645
G1 X65.827 Y151.581 E76.37759
G1 X65.8 Y151 E76.40332
G1 X65.8 Y84 E79.36713
G1 X65.84 Y83.297 E79.39828
G1 X65.959 Y82.603 E79.42943
G1 X66.157 Y81.928 E79.46055
G1 X66.429 Y81.279 E79.49167
G1 X66.774 Y80.665 E79.52283
G1 X67.185 Y80.094 E79.55395
G1 X67.659 Y79.573 E79.58511
G1 X68.189 Y79.109 E79.61627
G0 F7500 X68.578 Y79.317
G1 F1500 X69.15 Y78.948 E79.64638
G1 X69.762 Y78.649 E79.67651
G1 X70.404 Y78.424 E79.7066
G1 X71.069 Y78.275 E79.73675
G1 X72 Y78.2 E79.77807
G1 X163 Y78.2 E83.80354
G1 X163.68 Y78.24 E83.83367
G1 X164.35 Y78.359 E83.86378
G1 X165.002 Y78.556 E83.89391
G1 X165.626 Y78.828 E83.92402
G1 X166.214 Y79.172 E83.95415
G1 X166.758 Y79.582 E83.98429
G1 X167.249 Y80.053 E84.01438
G1 X167.683 Y80.578 E84.04451
G1 X168.052 Y81.15 E84.07463
G1 X168.351 Y81.762 E84.10476
G1 X168.576 Y82.404 E84.13485
G1 X168.725 Y83.069 E84.165
G1 X168.8 Y84 E84.20631
G1 X168.8 Y151 E87.17012
G1 X168.76 Y151.68 E87.20026
G1 X168.641 Y152.35 E87.23036
G1 X168.444 Y153.002 E87.26049
G1 X168.172 Y153.626 E87.2906
G1 X167.828 Y154.214 E87.32073
G1 X167.418 Y154.758 E87.35087
G1 X166.947 Y155.249 E87.38097
G1 X166.422 Y155.683 E87.4111
G1 X165.85 Y156.052 E87.44121
G1 X165.238 Y156.351 E87.47134
G1 X164.596 Y156.576 E87.50143
G1 X163.931 Y156.725 E87.53158
G1 X163 Y156.8 E87.5729
G1 X72 Y156.8 E91.59837
G1 X71.32 Y156.76 E91.6285
G1 X70.65 Y156.641 E91.6586
G1 X69.998 Y156.444 E91.68873
G1 X69.374 Y156.172 E91.71885
G1 X68.786 Y155.828 E91.74898
G1 X68.242 Y155.418 E91.77911
G1 X67.751 Y154.947 E91.80921
G1 X67.317 Y154.422 E91.83934
G1 X66.948 Y153.85 E91.86945
G1 X66.649 Y153.238 E91.89959
G1 X66.424 Y152.596 E91.92968
G1 X66.275 Y151.931 E91.95983
G1 X66.2 Y151 E92.00114
G1 X66.2 Y84 E94.96495
G1 X66.24 Y83.32 E94.99509
G1 X66.359 Y82.65 E95.02519
G1 X66.556 Y81.998 E95.05532
G1 X66.828 Y81.374 E95.08543
G1 X67.172 Y80.786 E95.11556
G1 X67.582 Y80.242 E95.1457
G1 X68.053 Y79.751 E95.17579
G1 X68.578 Y79.317 E95.20593
G0 F7500 X68.445 Y79.935
G1 F1500 X68.965 Y79.534 E95.23497
G1 X69.529 Y79.198 E95.26402
G1 X70.131 Y78.934 E95.29309
G1 X70.76 Y78.744 E95.32216
G1 X71.407 Y78.633 E95.3512
G1 X72 Y78.6 E95.37747
G1 X163 Y78.6 E99.40295
G1 X163.656 Y78.64 E99.43202
G1 X164.302 Y78.759 E99.46108
G1 X164.929 Y78.956 E99.49015
G1 X165.527 Y79.228 E99.51921
G1 X166.088 Y79.57 E99.54827
G1 X166.603 Y79.978 E99.57734
G1 X167.065 Y80.445 E99.6064
G1 X167.466 Y80.965 E99.63544
G1 X167.802 Y81.529 E99.66449
G1 X168.066 Y82.131 E99.69356
G1 X168.256 Y82.76 E99.72263
G1 X168.367 Y83.407 E99.75167
G1 X168.4 Y84 E99.77794
G1 X168.4 Y151 E102.74175
G1 X168.36 Y151.656 E102.77082
G1 X168.241 Y152.302 E102.79988
G1 X168.044 Y152.929 E102.82895
G1 X167.772 Y153.527 E102.85802
G1 X167.43 Y154.088 E102.88708
G1 X167.022 Y154.603 E102.91614
G1 X166.555 Y155.065 E102.9452
G1 X166.035 Y155.466 E102.97425
G1 X165.471 Y155.802 E103.00329
G1 X164.869 Y156.066 E103.03237
G1 X164.24 Y156.256 E103.06144
G1 X163.593 Y156.367 E103.09048
G1 X163 Y156.4 E103.11675
G1 X72 Y156.4 E107.14222
G1 X71.344 Y156.36 E107.17129
G1 X70.698 Y156.241 E107.20035
G1 X70.071 Y156.044 E107.22942
G1 X69.473 Y155.772 E107.25849
G1 X68.912 Y155.43 E107.28755
G1 X68.397 Y155.022 E107.31661
G1 X67.935 Y154.555 E107.34567
G1 X67.534 Y154.035 E107.37472
G1 X67.198 Y153.471 E107.40376
G1 X66.934 Y152.869 E107.43284
G1 X66.744 Y152.24 E107.46191
G1 X66.633 Y151.593 E107.49095
G1 X66.6 Y151 E107.51722
G1 X66.6 Y84 E110.48103
G1 X66.64 Y83.344 E110.5101
G1 X66.759 Y82.698 E110.53916
G1 X66.956 Y82.071 E110.56823
G1 X67.228 Y81.473 E110.59729
G1 X67.57 Y80.912 E110.62636
G1 X67.978 Y80.397 E110.65542
G1 X68.445 Y79.935 E110.68448
G0 F7500 X68.836 Y80.129
G1 F1500 X69.35 Y79.76 E110.71247
G1 X69.906 Y79.46 E110.74042
G1 X70.495 Y79.232 E110.76836
G1 X71.109 Y79.08 E110.79634
G1 X72 Y79 E110.83591
G1 X163 Y79 E114.86138
G1 X163.631 Y79.04 E114.88935
G1 X164.252 Y79.159 E114.91732
G1 X164.852 Y79.356 E114.94526
G1 X165.424 Y79.627 E114.97326
G1 X165.956 Y79.967 E115.00119
G1 X166.441 Y80.373 E115.02917
G1 X166.871 Y80.836 E115.05712
G1 X167.24 Y81.35 E115.08511
G1 X167.54 Y81.906 E115.11305
G1 X167.768 Y82.495 E115.14099
G1 X167.92 Y83.109 E115.16897
G1 X168 Y84 E115.20855
G1 X168 Y151 E118.17236
G1 X167.96 Y151.631 E118.20033
G1 X167.841 Y152.252 E118.2283
G1 X167.644 Y152.852 E118.25623
G1 X167.373 Y153.424 E118.28423
G1 X167.033 Y153.956 E118.31216
G1 X166.627 Y154.441 E118.34014
G1 X166.164 Y154.871 E118.36809
G1 X165.65 Y155.24 E118.39608
G1 X165.094 Y155.54 E118.42403
G1 X164.505 Y155.768 E118.45197
G1 X163.891 Y155.92 E118.47995
G1 X163 Y156 E118.51952
G1 X72 Y156 E122.545
G1 X71.369 Y155.96 E122.57296
G1 X70.748 Y155.841 E122.60094
G1 X70.148 Y155.644 E122.62887
G1 X69.576 Y155.373 E122.65687
G1 X69.044 Y155.033 E122.6848
G1 X68.559 Y154.627 E122.71278
G1 X68.129 Y154.164 E122.74073
G1 X67.76 Y153.65 E122.76872
G1 X67.46 Y153.094 E122.79667
G1 X67.232 Y152.505 E122.82461
G1 X67.08 Y151.891 E122.85259
G1 X67 Y151 E122.89216
G1 X67 Y84 E125.85597
G1 X67.04 Y83.369 E125.88394
G1 X67.159 Y82.748 E125.91191
G1 X67.356 Y82.148 E125.93985
G1 X67.627 Y81.576 E125.96784
G1 X67.967 Y81.044 E125.99577
G1 X68.373 Y80.559 E126.02375
G1 X68.836 Y80.129 E126.0517
G0 F7500 X69.225 Y80.331
G1 F1500 X69.732 Y79.998 E126.07854
G1 X70.278 Y79.734 E126.10537
G1 X70.854 Y79.545 E126.13218
G1 X71.45 Y79.433 E126.15901
G1 X72 Y79.4 E126.18338
G1 X163 Y79.4 E130.20886
G1 X163.605 Y79.44 E130.23568
G1 X164.199 Y79.559 E130.26248
G1 X164.773 Y79.755 E130.28931
G1 X165.316 Y80.026 E130.31615
G1 X165.819 Y80.365 E130.34298
G1 X166.272 Y80.767 E130.36978
G1 X166.669 Y81.225 E130.39659
G1 X167.002 Y81.732 E130.42342
G1 X167.266 Y82.278 E130.45025
G1 X167.455 Y82.854 E130.47706
G1 X167.567 Y83.45 E130.50389
G1 X167.6 Y84 E130.52826
