;FLAVOR:Marlin
;TIME:8661
;Filament used: 9.73849m
;Layer height: 0.28
;MINX:31.5
;MINY:96.7
;MINZ:0.28
;MAXX:203.5
;MAXY:138.3
;MAXZ:71.96
;Generated with Cura_SteamEngine 4.10.0
M140 S50
M105
M190 S50
M104 S200
M105
M109 S200
M82 ;absolute extrusion mode
; Ender 3 Custom Start G-code
G92 E0 ; Reset Extruder
G28 ; Home all axes
G1 Z2.0 F3000 ; Move Z Axis up little to prevent scratching of Heat Bed
G1 X0.1 Y20 Z0.3 F5000.0 ; Move to start position
G1 X0.1 Y200.0 Z0.3 F1500.0 E15 ; Draw the first line
G1 X0.4 Y200.0 Z0.3 F5000.0 ; Move to side a little
G1 X0.4 Y20 Z0.3 F1500.0 E30 ; Draw the second line
G92 E0 ; Reset Extruder
G1 Z2.0 F3000 ; Move Z Axis up little to prevent scratching of Heat Bed
G1 X5 Y20 Z0.3 F5000.0 ; Move over to prevent blob squish
G92 E0
G92 E0
G1 F2700 E-6
;LAYER_COUNT:257
;LAYER:0
M107
M204 S500
M205 X8 Y8
G0 F7500 X36.586 Y103.187 Z0.28
;TYPE:SKIRT
G1 F2700 E0
G1 F1500 X37.339 Y102.95 E0.03492
G1 X38.113 Y102.791 E0.06987
G1 X38.898 Y102.71 E0.10478
G1 X39.3 Y102.7 E0.12257
G1 X62.319 Y102.7 E1.14084
G1 X62.457 Y102.166 E1.16524
G1 X62.731 Y101.426 E1.20014
G1 X63.079 Y100.717 E1.23508
G1 X63.497 Y100.046 E1.27005
G1 X63.98 Y99.422 E1.30496
G1 X64.523 Y98.849 E1.33988
G1 X65.122 Y98.334 E1.37482
G1 X65.77 Y97.883 E1.40975
G1 X66.461 Y97.499 E1.44472
G1 X67.186 Y97.187 E1.47963
G1 X67.939 Y96.95 E1.51455
G1 X68.713 Y96.791 E1.54951
G1 X69.498 Y96.71 E1.58442
G1 X69.9 Y96.7 E1.60221
G1 X163.9 Y96.7 E5.76039
G1 X164.689 Y96.74 E5.79533
G1 X165.469 Y96.859 E5.83024
G1 X166.234 Y97.057 E5.86519
G1 X166.974 Y97.331 E5.9001
G1 X167.683 Y97.679 E5.93504
G1 X168.354 Y98.097 E5.97001
G1 X168.978 Y98.58 E6.00491
G1 X169.551 Y99.123 E6.03983
G1 X170.066 Y99.722 E6.07478
G1 X170.517 Y100.37 E6.1097
G1 X170.901 Y101.061 E6.14467
G1 X171.213 Y101.786 E6.17959
G1 X171.45 Y102.539 E6.21451
G1 X171.483 Y102.7 E6.22178
G1 X195.7 Y102.7 E7.29304
G1 X196.489 Y102.74 E7.32799
G1 X197.269 Y102.859 E7.36289
G1 X198.034 Y103.057 E7.39785
G1 X198.774 Y103.331 E7.43275
G1 X199.483 Y103.679 E7.46769
G1 X200.154 Y104.097 E7.50266
G1 X200.778 Y104.58 E7.53757
G1 X201.351 Y105.123 E7.57249
G1 X201.866 Y105.722 E7.60743
G1 X202.317 Y106.37 E7.64236
G1 X202.701 Y107.061 E7.67733
G1 X203.013 Y107.786 E7.71224
G1 X203.25 Y108.539 E7.74716
G1 X203.409 Y109.313 E7.78212
G1 X203.49 Y110.098 E7.81703
G1 X203.5 Y110.5 E7.83481
G1 X203.5 Y130.5 E8.71953
G1 X203.46 Y131.289 E8.75448
G1 X203.341 Y132.069 E8.78938
G1 X203.143 Y132.834 E8.82434
G1 X202.869 Y133.574 E8.85925
G1 X202.521 Y134.283 E8.89418
G1 X202.103 Y134.954 E8.92915
G1 X201.62 Y135.578 E8.96406
G1 X201.077 Y136.151 E8.99898
G1 X200.478 Y136.666 E9.03393
G1 X199.83 Y137.117 E9.06885
G1 X199.139 Y137.501 E9.10382
G1 X198.414 Y137.813 E9.13873
G1 X197.661 Y138.05 E9.17365
G1 X196.887 Y138.209 E9.20861
G1 X196.102 Y138.29 E9.24352
G1 X195.7 Y138.3 E9.26131
G1 X155.7 Y138.3 E11.03075
G1 X154.911 Y138.26 E11.06569
G1 X154.131 Y138.141 E11.1006
G1 X153.366 Y137.943 E11.13555
G1 X152.626 Y137.669 E11.17046
G1 X151.917 Y137.321 E11.2054
G1 X151.246 Y136.903 E11.24037
G1 X150.622 Y136.42 E11.27527
G1 X150.049 Y135.877 E11.31019
G1 X149.534 Y135.278 E11.34514
G1 X149.083 Y134.63 E11.38006
G1 X148.699 Y133.939 E11.41503
G1 X148.387 Y133.214 E11.44995
G1 X148.15 Y132.461 E11.48487
G1 X147.991 Y131.687 E11.51982
G1 X147.91 Y130.902 E11.55473
G1 X147.9 Y130.5 E11.57252
G1 X147.9 Y123.3 E11.89102
G1 X87.1 Y123.3 E14.58057
G1 X87.1 Y130.5 E14.89906
G1 X87.06 Y131.289 E14.93401
G1 X86.941 Y132.069 E14.96891
G1 X86.743 Y132.834 E15.00387
G1 X86.469 Y133.574 E15.03878
G1 X86.121 Y134.283 E15.07371
G1 X85.703 Y134.954 E15.10869
G1 X85.22 Y135.578 E15.14359
G1 X84.677 Y136.151 E15.17851
G1 X84.078 Y136.666 E15.21346
G1 X83.43 Y137.117 E15.24838
G1 X82.739 Y137.501 E15.28335
G1 X82.014 Y137.813 E15.31826
G1 X81.261 Y138.05 E15.35319
G1 X80.487 Y138.209 E15.38814
G1 X79.702 Y138.29 E15.42305
G1 X79.3 Y138.3 E15.44084
G1 X39.3 Y138.3 E17.21028
G1 X38.511 Y138.26 E17.24522
G1 X37.731 Y138.141 E17.28013
G1 X36.966 Y137.943 E17.31508
G1 X36.226 Y137.669 E17.34999
G1 X35.517 Y137.321 E17.38493
G1 X34.846 Y136.903 E17.4199
G1 X34.222 Y136.42 E17.4548
G1 X33.649 Y135.877 E17.48972
G1 X33.134 Y135.278 E17.52467
G1 X32.683 Y134.63 E17.55959
G1 X32.299 Y133.939 E17.59456
G1 X31.987 Y133.214 E17.62948
G1 X31.75 Y132.461 E17.6644
G1 X31.591 Y131.687 E17.69935
G1 X31.51 Y130.902 E17.73426
G1 X31.5 Y130.5 E17.75205
G1 X31.5 Y110.5 E18.63677
G1 X31.54 Y109.711 E18.67172
G1 X31.659 Y108.931 E18.70662
G1 X31.857 Y108.166 E18.74157
G1 X32.131 Y107.426 E18.77648
G1 X32.479 Y106.717 E18.81142
G1 X32.897 Y106.046 E18.84639
G1 X33.38 Y105.422 E18.8813
G1 X33.923 Y104.849 E18.91622
G1 X34.522 Y104.334 E18.95116
G1 X35.17 Y103.883 E18.98608
G1 X35.861 Y103.499 E19.02105
G1 X36.586 Y103.187 E19.05597
G0 F7500 X36.951 Y103.483
G1 F1500 X37.693 Y103.277 E19.09003
G1 X38.451 Y103.149 E19.12404
G1 X39.3 Y103.1 E19.16166
G1 X62.639 Y103.1 E20.19408
G1 X62.659 Y102.972 E20.19981
G1 X62.857 Y102.229 E20.23383
G1 X63.131 Y101.51 E20.26786
G1 X63.478 Y100.824 E20.30187
G1 X63.894 Y100.177 E20.3359
G1 X64.375 Y99.577 E20.36992
G1 X64.916 Y99.03 E20.40395
G1 X65.511 Y98.542 E20.43799
G1 X66.153 Y98.119 E20.472
G1 X66.836 Y97.764 E20.50605
G1 X67.551 Y97.483 E20.54003
G1 X68.293 Y97.277 E20.5741
G1 X69.051 Y97.149 E20.6081
G1 X69.9 Y97.1 E20.64572
G1 X163.9 Y97.1 E24.8039
G1 X164.668 Y97.14 E24.83792
G1 X165.428 Y97.259 E24.87195
G1 X166.171 Y97.457 E24.90597
G1 X166.89 Y97.731 E24.94
G1 X167.576 Y98.078 E24.97401
G1 X168.223 Y98.494 E25.00804
G1 X168.823 Y98.975 E25.04205
G1 X169.37 Y99.516 E25.07609
G1 X169.858 Y100.111 E25.11013
G1 X170.281 Y100.753 E25.14414
G1 X170.636 Y101.436 E25.17819
G1 X170.917 Y102.151 E25.21217
G1 X171.123 Y102.893 E25.24624
G1 X171.158 Y103.1 E25.25552
G1 X195.7 Y103.1 E26.34116
G1 X196.468 Y103.14 E26.37518
G1 X197.228 Y103.259 E26.40921
G1 X197.971 Y103.457 E26.44322
G1 X198.69 Y103.731 E26.47726
G1 X199.376 Y104.078 E26.51127
G1 X200.023 Y104.494 E26.5453
G1 X200.623 Y104.975 E26.57931
G1 X201.17 Y105.516 E26.61335
G1 X201.658 Y106.111 E26.64739
G1 X202.081 Y106.753 E26.6814
G1 X202.436 Y107.436 E26.71545
G1 X202.717 Y108.151 E26.74943
G1 X202.923 Y108.893 E26.78349
G1 X203.051 Y109.651 E26.8175
G1 X203.1 Y110.5 E26.85512
G1 X203.1 Y130.5 E27.73984
G1 X203.06 Y131.268 E27.77386
G1 X202.941 Y132.028 E27.80789
G1 X202.743 Y132.771 E27.8419
G1 X202.469 Y133.49 E27.87594
G1 X202.122 Y134.176 E27.90995
G1 X201.706 Y134.823 E27.94397
G1 X201.225 Y135.423 E27.97799
G1 X200.684 Y135.97 E28.01202
G1 X200.089 Y136.458 E28.04606
G1 X199.447 Y136.881 E28.08007
G1 X198.764 Y137.236 E28.11412
G1 X198.049 Y137.517 E28.14811
G1 X197.307 Y137.723 E28.18217
G1 X196.549 Y137.851 E28.21618
G1 X195.7 Y137.9 E28.2538
G1 X155.7 Y137.9 E30.02323
G1 X154.932 Y137.86 E30.05725
G1 X154.172 Y137.741 E30.09128
G1 X153.429 Y137.543 E30.1253
G1 X152.71 Y137.269 E30.15933
G1 X152.024 Y136.922 E30.19334
G1 X151.377 Y136.506 E30.22737
G1 X150.777 Y136.025 E30.26139
G1 X150.23 Y135.484 E30.29542
G1 X149.742 Y134.889 E30.32946
G1 X149.319 Y134.247 E30.36347
G1 X148.964 Y133.564 E30.39752
G1 X148.683 Y132.849 E30.4315
G1 X148.477 Y132.107 E30.46557
G1 X148.349 Y131.349 E30.49957
G1 X148.3 Y130.5 E30.53719
G1 X148.3 Y122.9 E30.87338
G1 X86.7 Y122.9 E33.59832
G1 X86.7 Y130.5 E33.93451
G1 X86.66 Y131.268 E33.96853
G1 X86.541 Y132.028 E34.00256
G1 X86.343 Y132.771 E34.03658
G1 X86.069 Y133.49 E34.07061
G1 X85.722 Y134.176 E34.10462
G1 X85.306 Y134.823 E34.13865
G1 X84.825 Y135.423 E34.17267
G1 X84.284 Y135.97 E34.2067
G1 X83.689 Y136.458 E34.24074
G1 X83.047 Y136.881 E34.27475
G1 X82.364 Y137.236 E34.3088
G1 X81.649 Y137.517 E34.34278
G1 X80.907 Y137.723 E34.37685
G1 X80.149 Y137.851 E34.41085
G1 X79.3 Y137.9 E34.44847
G1 X39.3 Y137.9 E36.21791
G1 X38.532 Y137.86 E36.25193
G1 X37.772 Y137.741 E36.28596
G1 X37.029 Y137.543 E36.31997
G1 X36.31 Y137.269 E36.35401
G1 X35.624 Y136.922 E36.38802
G1 X34.977 Y136.506 E36.42204
G1 X34.377 Y136.025 E36.45606
G1 X33.83 Y135.484 E36.49009
G1 X33.342 Y134.889 E36.52413
G1 X32.919 Y134.247 E36.55814
G1 X32.564 Y133.564 E36.59219
G1 X32.283 Y132.849 E36.62618
G1 X32.077 Y132.107 E36.66024
G1 X31.949 Y131.349 E36.69425
G1 X31.9 Y130.5 E36.73187
G1 X31.9 Y110.5 E37.61659
G1 X31.94 Y109.732 E37.65061
G1 X32.059 Y108.972 E37.68464
G1 X32.257 Y108.229 E37.71865
G1 X32.531 Y107.51 E37.75269
G1 X32.878 Y106.824 E37.78669
G1 X33.294 Y106.177 E37.82072
G1 X33.775 Y105.577 E37.85474
G1 X34.316 Y105.03 E37.88877
G1 X34.911 Y104.542 E37.92281
G1 X35.553 Y104.119 E37.95682
G1 X36.236 Y103.764 E37.99087
G1 X36.951 Y103.483 E38.02486
G0 F7500 X36.608 Y104.038
G1 F1500 X37.313 Y103.788 E38.05794
G1 X38.041 Y103.614 E38.09106
G1 X38.783 Y103.519 E38.12415
G1 X39.3 Y103.5 E38.14703
G1 X62.981 Y103.5 E39.19458
G1 X63.059 Y103.015 E39.21631
G1 X63.257 Y102.293 E39.24943
G1 X63.53 Y101.597 E39.2825
G1 X63.877 Y100.934 E39.31561
G1 X64.292 Y100.311 E39.34872
G1 X64.771 Y99.737 E39.38179
G1 X65.308 Y99.216 E39.41489
G1 X65.898 Y98.757 E39.44796
G1 X66.534 Y98.362 E39.48107
G1 X67.208 Y98.038 E39.51416
G1 X67.913 Y97.788 E39.54724
G1 X68.641 Y97.614 E39.58036
G1 X69.383 Y97.519 E39.61345
G1 X69.9 Y97.5 E39.63633
G1 X163.9 Y97.5 E43.79451
G1 X164.647 Y97.54 E43.82761
G1 X165.385 Y97.659 E43.86067
G1 X166.107 Y97.857 E43.89379
G1 X166.803 Y98.13 E43.92686
G1 X167.466 Y98.477 E43.95997
G1 X168.089 Y98.892 E43.99308
G1 X168.663 Y99.371 E44.02615
G1 X169.184 Y99.908 E44.05925
G1 X169.643 Y100.498 E44.09231
G1 X170.038 Y101.134 E44.12543
G1 X170.362 Y101.808 E44.15851
G1 X170.612 Y102.513 E44.1916
G1 X170.786 Y103.241 E44.22471
G1 X170.819 Y103.5 E44.23626
G1 X195.7 Y103.5 E45.3369
G1 X196.447 Y103.54 E45.36999
G1 X197.185 Y103.659 E45.40306
G1 X197.907 Y103.857 E45.43618
G1 X198.603 Y104.13 E45.46925
G1 X199.266 Y104.477 E45.50235
G1 X199.889 Y104.892 E45.53546
G1 X200.463 Y105.371 E45.56854
G1 X200.984 Y105.908 E45.60163
G1 X201.443 Y106.498 E45.6347
G1 X201.838 Y107.134 E45.66782
G1 X202.162 Y107.808 E45.7009
G1 X202.412 Y108.513 E45.73399
G1 X202.586 Y109.241 E45.7671
G1 X202.681 Y109.983 E45.80019
G1 X202.7 Y110.5 E45.82308
G1 X202.7 Y130.5 E46.7078
G1 X202.66 Y131.247 E46.74089
G1 X202.541 Y131.985 E46.77396
G1 X202.343 Y132.707 E46.80707
G1 X202.07 Y133.403 E46.84015
G1 X201.723 Y134.066 E46.87325
G1 X201.308 Y134.689 E46.90636
G1 X200.829 Y135.263 E46.93943
G1 X200.292 Y135.784 E46.97253
G1 X199.702 Y136.243 E47.0056
G1 X199.066 Y136.638 E47.03872
G1 X198.392 Y136.962 E47.0718
G1 X197.687 Y137.212 E47.10489
G1 X196.959 Y137.386 E47.138
G1 X196.217 Y137.481 E47.17109
G1 X195.7 Y137.5 E47.19397
G1 X155.7 Y137.5 E48.96341
G1 X154.953 Y137.46 E48.9965
G1 X154.215 Y137.341 E49.02957
G1 X153.493 Y137.143 E49.06269
G1 X152.797 Y136.87 E49.09576
G1 X152.134 Y136.523 E49.12886
G1 X151.511 Y136.108 E49.16198
G1 X150.937 Y135.629 E49.19505
G1 X150.416 Y135.092 E49.22815
G1 X149.957 Y134.502 E49.26121
G1 X149.562 Y133.866 E49.29433
G1 X149.238 Y133.192 E49.32741
G1 X148.988 Y132.487 E49.3605
G1 X148.814 Y131.759 E49.39361
G1 X148.719 Y131.017 E49.4267
G1 X148.7 Y130.5 E49.44959
G1 X148.7 Y122.5 E49.80348
G1 X86.3 Y122.5 E52.5638
G1 X86.3 Y130.5 E52.91769
G1 X86.26 Y131.247 E52.95078
G1 X86.141 Y131.985 E52.98385
G1 X85.943 Y132.707 E53.01697
G1 X85.67 Y133.403 E53.05004
G1 X85.323 Y134.066 E53.08314
G1 X84.908 Y134.689 E53.11626
G1 X84.429 Y135.263 E53.14933
G1 X83.892 Y135.784 E53.18242
G1 X83.302 Y136.243 E53.21549
G1 X82.666 Y136.638 E53.24861
G1 X81.992 Y136.962 E53.28169
G1 X81.287 Y137.212 E53.31478
G1 X80.559 Y137.386 E53.34789
G1 X79.817 Y137.481 E53.38098
G1 X79.3 Y137.5 E53.40387
G1 X39.3 Y137.5 E55.17331
G1 X38.553 Y137.46 E55.2064
G1 X37.815 Y137.341 E55.23947
G1 X37.093 Y137.143 E55.27258
G1 X36.397 Y136.87 E55.30566
G1 X35.734 Y136.523 E55.33876
G1 X35.111 Y136.108 E55.37187
G1 X34.537 Y135.629 E55.40494
G1 X34.016 Y135.092 E55.43804
G1 X33.557 Y134.502 E55.47111
G1 X33.162 Y133.866 E55.50423
G1 X32.838 Y133.192 E55.53731
G1 X32.588 Y132.487 E55.5704
G1 X32.414 Y131.759 E55.60351
G1 X32.319 Y131.017 E55.6366
G1 X32.3 Y130.5 E55.65948
G1 X32.3 Y110.5 E56.5442
G1 X32.34 Y109.753 E56.5773
G1 X32.459 Y109.015 E56.61036
G1 X32.657 Y108.293 E56.64348
G1 X32.93 Y107.597 E56.67655
G1 X33.277 Y106.934 E56.70965
G1 X33.692 Y106.311 E56.74277
G1 X34.171 Y105.737 E56.77584
G1 X34.708 Y105.216 E56.80894
G1 X35.298 Y104.757 E56.842
G1 X35.934 Y104.362 E56.87512
G1 X36.608 Y104.038 E56.9082
G0 F7500 X36.978 Y104.322
G1 F1500 X37.671 Y104.104 E56.94034
G1 X38.383 Y103.964 E56.97244
G1 X39.3 Y103.9 E57.0131
G1 X63.333 Y103.9 E58.07623
G1 X63.34 Y103.775 E58.08176
G1 X63.459 Y103.058 E58.11392
G1 X63.657 Y102.359 E58.14605
G1 X63.93 Y101.686 E58.17818
G1 X64.275 Y101.047 E58.2103
G1 X64.689 Y100.45 E58.24244
G1 X65.165 Y99.902 E58.27455
G1 X65.699 Y99.409 E58.3067
G1 X66.284 Y98.979 E58.33882
G1 X66.913 Y98.615 E58.37096
G1 X67.578 Y98.322 E58.40311
G1 X68.271 Y98.104 E58.43525
G1 X68.983 Y97.964 E58.46735
G1 X69.9 Y97.9 E58.50801
G1 X163.9 Y97.9 E62.66619
G1 X164.625 Y97.94 E62.69831
G1 X165.342 Y98.059 E62.73046
G1 X166.041 Y98.257 E62.7626
G1 X166.714 Y98.53 E62.79473
G1 X167.353 Y98.875 E62.82685
G1 X167.95 Y99.289 E62.85899
G1 X168.498 Y99.765 E62.8911
G1 X168.991 Y100.299 E62.92325
G1 X169.421 Y100.884 E62.95536
G1 X169.785 Y101.513 E62.98751
G1 X170.078 Y102.178 E63.01966
G1 X170.296 Y102.871 E63.05179
G1 X170.436 Y103.583 E63.08389
G1 X170.458 Y103.9 E63.09795
G1 X195.7 Y103.9 E64.21455
G1 X196.425 Y103.94 E64.24667
G1 X197.142 Y104.059 E64.27882
G1 X197.841 Y104.257 E64.31096
G1 X198.514 Y104.53 E64.34309
G1 X199.153 Y104.875 E64.37521
G1 X199.75 Y105.289 E64.40735
G1 X200.298 Y105.765 E64.43946
G1 X200.791 Y106.299 E64.47161
G1 X201.221 Y106.884 E64.50373
G1 X201.585 Y107.513 E64.53587
G1 X201.878 Y108.178 E64.56802
G1 X202.096 Y108.871 E64.60016
G1 X202.236 Y109.583 E64.63225
G1 X202.3 Y110.5 E64.67292
G1 X202.3 Y130.5 E65.55764
G1 X202.26 Y131.225 E65.58976
G1 X202.141 Y131.942 E65.62191
G1 X201.943 Y132.641 E65.65405
G1 X201.67 Y133.314 E65.68617
G1 X201.325 Y133.953 E65.7183
G1 X200.911 Y134.55 E65.75043
G1 X200.435 Y135.098 E65.78254
G1 X199.901 Y135.591 E65.81469
G1 X199.316 Y136.021 E65.84681
G1 X198.687 Y136.385 E65.87896
G1 X198.022 Y136.678 E65.9111
G1 X197.329 Y136.896 E65.94324
G1 X196.617 Y137.036 E65.97534
G1 X195.7 Y137.1 E66.016
G1 X155.7 Y137.1 E67.78544
G1 X154.975 Y137.06 E67.81756
G1 X154.258 Y136.941 E67.84971
G1 X153.559 Y136.743 E67.88185
G1 X152.886 Y136.47 E67.91398
G1 X152.247 Y136.125 E67.9461
G1 X151.65 Y135.711 E67.97824
G1 X151.102 Y135.235 E68.01035
G1 X150.609 Y134.701 E68.0425
G1 X150.179 Y134.116 E68.07461
G1 X149.815 Y133.487 E68.10676
G1 X149.522 Y132.822 E68.13891
G1 X149.304 Y132.129 E68.17104
G1 X149.164 Y131.417 E68.20314
G1 X149.1 Y130.5 E68.24381
G1 X149.1 Y122.1 E68.61539
G1 X85.9 Y122.1 E71.4111
G1 X85.9 Y130.5 E71.78268
G1 X85.86 Y131.225 E71.8148
G1 X85.741 Y131.942 E71.84695
G1 X85.543 Y132.641 E71.87909
G1 X85.27 Y133.314 E71.91122
G1 X84.925 Y133.953 E71.94334
G1 X84.511 Y134.55 E71.97548
G1 X84.035 Y135.098 E72.00759
G1 X83.501 Y135.591 E72.03974
G1 X82.916 Y136.021 E72.07186
G1 X82.287 Y136.385 E72.104
G1 X81.622 Y136.678 E72.13615
G1 X80.929 Y136.896 E72.16829
G1 X80.217 Y137.036 E72.20039
G1 X79.3 Y137.1 E72.24105
G1 X39.3 Y137.1 E74.01049
G1 X38.575 Y137.06 E74.04261
G1 X37.858 Y136.941 E74.07476
G1 X37.159 Y136.743 E74.1069
G1 X36.486 Y136.47 E74.13902
G1 X35.847 Y136.125 E74.17115
G1 X35.25 Y135.711 E74.20328
G1 X34.702 Y135.235 E74.23539
G1 X34.209 Y134.701 E74.26754
G1 X33.779 Y134.116 E74.29966
G1 X33.415 Y133.487 E74.33181
G1 X33.122 Y132.822 E74.36395
G1 X32.904 Y132.129 E74.39609
G1 X32.764 Y131.417 E74.42819
G1 X32.7 Y130.5 E74.46885
G1 X32.7 Y110.5 E75.35357
G1 X32.74 Y109.775 E75.38569
G1 X32.859 Y109.058 E75.41784
G1 X33.057 Y108.359 E75.44998
G1 X33.33 Y107.686 E75.48211
G1 X33.675 Y107.047 E75.51423
G1 X34.089 Y106.45 E75.54637
G1 X34.565 Y105.902 E75.57848
G1 X35.099 Y105.409 E75.61063
G1 X35.684 Y104.979 E75.64274
